icons/solid/status-offline.svg

<svg width="24" height="24" viewBox="0 0 24 24" fill="none" xmlns="http://www.w3.org/2000/svg">
<path fill-rule="evenodd" clip-rule="evenodd" d="M3.70711 2.29289C3.31658 1.90237 2.68342 1.90237 2.29289 2.29289C1.90237 2.68342 1.90237 3.31658 2.29289 3.70711L15.5355 16.9497L18.364 19.7782L20.2929 21.7071C20.6834 22.0976 21.3166 22.0976 21.7071 21.7071C22.0976 21.3166 22.0976 20.6834 21.7071 20.2929L20.4536 19.0394C24.0607 14.7177 23.8356 8.27923 19.7782 4.22182C19.3876 3.83129 18.7545 3.83129 18.364 4.22182C17.9734 4.61234 17.9734 5.24551 18.364 5.63603C21.6397 8.91174 21.8624 14.0843 19.0322 17.618L17.6067 16.1925C19.6623 13.4507 19.4433 9.54384 16.9497 7.05024C16.5592 6.65972 15.9261 6.65972 15.5355 7.05025C15.145 7.44077 15.145 8.07393 15.5355 8.46446C17.246 10.1749 17.4581 12.8163 16.1719 14.7577L14.7074 13.2932C14.8951 12.9008 15 12.4616 15 12C15 10.3431 13.6569 8.99999 12 8.99999C11.5384 8.99999 11.0992 9.10489 10.7068 9.29254L3.70711 2.29289ZM3.74859 8.39965C3.96931 7.89339 3.73783 7.30405 3.23157 7.08333C2.72531 6.86261 2.13597 7.09409 1.91525 7.60035C0.161208 11.6236 0.928111 16.4845 4.22183 19.7782C4.61235 20.1687 5.24551 20.1687 5.63604 19.7782C6.02656 19.3876 6.02656 18.7545 5.63604 18.364C2.94321 15.6711 2.31211 11.6945 3.74859 8.39965ZM7.06959 11.1658C7.16117 10.6212 6.79389 10.1054 6.24925 10.0138C5.70461 9.92227 5.18886 10.2895 5.09728 10.8342C4.73505 12.9885 5.38503 15.2845 7.05025 16.9497C7.44078 17.3403 8.07394 17.3403 8.46447 16.9497C8.85499 16.5592 8.85499 15.9261 8.46447 15.5355C7.27598 14.347 6.81002 12.7096 7.06959 11.1658Z" fill="currentColor"/>
</svg>

<svg width="24" height="24" fill="none" xmlns="http://www.w3.org/2000/svg"><path fill-rule="evenodd" clip-rule="evenodd" d="M3.707 2.293a1 1 0 00-1.414 1.414L15.535 16.95l2.829 2.828 1.929 1.93a1 1 0 001.414-1.415l-1.253-1.254c3.607-4.321 3.382-10.76-.676-14.817a1 1 0 10-1.414 1.414 9.001 9.001 0 01.668 11.982l-1.425-1.425a7.002 7.002 0 00-.657-9.143 1 1 0 10-1.414 1.414 5.002 5.002 0 01.636 6.294l-1.465-1.465a3 3 0 00-4-4l-7-7zM3.75 8.4a1 1 0 00-1.834-.8C.161 11.624.928 16.485 4.222 19.778a1 1 0 001.414-1.414A9.004 9.004 0 013.749 8.4zm3.32 2.766a1 1 0 00-1.972-.332A6.992 6.992 0 007.05 16.95a1 1 0 101.414-1.414 4.993 4.993 0 01-1.394-4.37z" fill="currentColor"/></svg>
